X: 614
U:~=!turn!
M:C
L:1/8
K:A
a !segno!| eccA dBBG | Aaag (gf)(fa) | eccA dBBG | A2 c2 A2 ::
z2 | [E2B2] e2 c2 e2 | [E2B2] e2 c2 e2 | BBBd ccce | c2 B2 A2 :|
z2 | Tc2 (cd) e2 c2 | TB2 (Bc) {/c}d2 B2 | cBcd eagf | edcB {cB} A2 (AB) |


